!!!OTL: 98c. Die Juedin.
!!!ODT: 1841
!!!ARE: Europa, Mitteleuropa, Deutschland, Uckermark, Granzow
!!!SCT: E0098B
!!!TXL: @@DE
!!!YEM: Copyright 1995, estate of Helmut Schaffrath.
**kern	**text
*ICvox	*
*M3/8	*
*k[b-]	*
*F:	*
!LO:TX:a:t=Sehr mäßig.	!
!LO:TX:a:t=Aus Granʒow in der Uckermark. 1841.	!
{8c	Es
=1	=1
4f	war
8f	ein-
=2	=2
8.gL	-mal
16b-J	.
16a	ei-
16g	-ne
=3	=3
8a	Jü-
8f;}	-din,
{8ff	ein
=4	=4
8.eeL	wun-
16ddJ	.
8cc	-der-
=5	=5
(8eeqq	.
4dd)	-ſchö-
8bn	-nes
=6	=6
4cc;}	Weib,
{8cc	die
=7	=7
8ff	hatt'
8ff	ei-
8cc	-ne
=8	=8
8.ddL	ſchö-
16eeJ	.
16ffL	-ne
16ddJ	.
=9	=9
8cc	Tochter,
8a}	.
{8cc	ihr
=10	=10
4ff	Haar
16ccL	war
16ddJ	.
=11	=11
8.ccL	glatt
16b-J	.
16gL	ge-
16b-J	.
=12	=12
8a	-flochten,
8f	.
8r}	.
=13	=13
{8a	ʒum
8a	Tanʒ
8dd	war
=14	=14
8ccL	ſie
8b-J	.
8g	be-
=15	=15
4f}	-reit.
==	==
!!!AGN: erzaehlendes Volks - Lied, Sage, Liebe, Leid, Ballade ?
!!!ONB: ESAC (Essen Associative Code) Database: ERK1
!!!AMT: simple triple
!!!AIN: vox
!!!EED: Helmut Schaffrath
!!!EEV: 1.0
!!!GTL: Liebesgeschichten mit tragischem Schluss
!!!URL-scan: https://rosdok.uni-rostock.de/mcrviewer/recordIdentifier/rosdok_ppn745146120/iview2/phys_0416.iview2?x=-422.27491384562836&y=200.32300019660033&scale=0.554360769283424&rotation=0&layout=singlePageLayout
!!!ENC: Anna Maria Matuszewska
!!!EEV: 2024/11/29
*-	*-
